X:344020
T:Danse Breton
R:reel
M:4/4
L:1/8
K:Bmin
B2f2 f2ef|g3f e2cd|e2e2 f2 ed|cA Bc d2c2|
B2f2 f2ef|g3f e2cd|e2e2 f2 ed|cA Bc B2 BA:|
BFB2 c2dc| BFB2 c2d2|e2e2 f2 ed|cA Bc d2c2|
BFB2 c2dc| BFB2 c2d2|e2e2 f2 ed|cA Ac B2 BA:|


